Papirus/48x48/mimetypes/text-x-haskell.svg

<svg xmlns="http://www.w3.org/2000/svg" width="48" height="48" version="1.1">
 <path style="opacity:0.2" d="M 10,5 C 8.892,5 8,5.892 8,7 v 36 c 0,1.108 0.892,2 2,2 h 28 c 1.108,0 2,-0.892 2,-2 V 17 L 29,16 28,5 Z"/>
 <path fill="#e4e4e4" d="m10 4c-1.108 0-2 0.892-2 2v36c0 1.108 0.892 2 2 2h28c1.108 0 2-0.892 2-2v-26l-11-1-1-11z"/>
 <path style="fill:#ffffff;opacity:0.2" d="M 10 4 C 8.892 4 8 4.892 8 6 L 8 7 C 8 5.892 8.892 5 10 5 L 28 5 L 28 4 L 10 4 z"/>
 <path style="opacity:0.2" d="m 28,5 v 10 c 0,1.1046 0.89543,2 2,2 h 10 z"/>
 <path fill="#fafafa" d="m28 4v10c0 1.1046 0.89543 2 2 2h10l-12-12z"/>
 <path style="fill:#8b82a4" d="m 14,21 5,9 -5,9 h 3 l 5,-9 -5,-9 z"/>
 <path style="fill:#5f5088" d="m 19,21 5,9 -5,9 h 3 L 25.5,32.699 29,39 h 3 L 22,21 Z"/>
 <path style="fill:#8b82a4" d="m 27.334,27 1.111,2 H 33 v -2 z"/>
 <path style="fill:#8b82a4" d="m 29.555,31 1.111,2 H 33 v -2 z"/>
</svg>

<svg xmlns="http://www.w3.org/2000/svg" width="48" height="48" version="1.1">
 <path style="opacity:0.2" d="M 10,5 C 8.892,5 8,5.892 8,7 v 36 c 0,1.108 0.892,2 2,2 h 28 c 1.108,0 2,-0.892 2,-2 V 17 L 29,16 28,5 Z"/>
 <path fill="#e4e4e4" d="m10 4c-1.108 0-2 0.892-2 2v36c0 1.108 0.892 2 2 2h28c1.108 0 2-0.892 2-2v-26l-11-1-1-11z"/>
 <path style="fill:#ffffff;opacity:0.2" d="M 10 4 C 8.892 4 8 4.892 8 6 L 8 7 C 8 5.892 8.892 5 10 5 L 28 5 L 28 4 L 10 4 z"/>
 <path style="opacity:0.2" d="m 28,5 v 10 c 0,1.1046 0.89543,2 2,2 h 10 z"/>
 <path fill="#fafafa" d="m28 4v10c0 1.1046 0.89543 2 2 2h10l-12-12z"/>
 <path style="opacity:0.5" d="M 14 21 L 19 30 L 14 39 L 17 39 L 22 30 L 17 21 L 14 21 z M 19 21 L 24 30 L 19 39 L 22 39 L 25.5 32.699 L 29 39 L 32 39 L 22 21 L 19 21 z M 27.334 27 L 28.445 29 L 33 29 L 33 27 L 27.334 27 z M 29.555 31 L 30.666 33 L 33 33 L 33 31 L 29.555 31 z"/>
</svg>
